Numix/16/status/indicator-keyboard-Bm.svg

<?xml version="1.0" encoding="UTF-8" standalone="no"?>
<svg
   xmlns:dc="http://purl.org/dc/elements/1.1/"
   xmlns:cc="http://creativecommons.org/ns#"
   xmlns:rdf="http://www.w3.org/1999/02/22-rdf-syntax-ns#"
   xmlns:svg="http://www.w3.org/2000/svg"
   xmlns="http://www.w3.org/2000/svg"
   xmlns:sodipodi="http://sodipodi.sourceforge.net/DTD/sodipodi-0.dtd"
   xmlns:inkscape="http://www.inkscape.org/namespaces/inkscape"
   viewBox="0 0 16 16"
   id="svg2"
   version="1.1"
   inkscape:version="0.91 r13725"
   sodipodi:docname="indicator-keyboard-Bm.svg">
  <metadata
     id="metadata13">
    <rdf:RDF>
      <cc:Work
         rdf:about="">
        <dc:format>image/svg+xml</dc:format>
        <dc:type
           rdf:resource="http://purl.org/dc/dcmitype/StillImage" />
      </cc:Work>
    </rdf:RDF>
  </metadata>
  <defs
     id="defs11" />
  <sodipodi:namedview
     pagecolor="#ffffff"
     bordercolor="#666666"
     borderopacity="1"
     objecttolerance="10"
     gridtolerance="10"
     guidetolerance="10"
     inkscape:pageopacity="0"
     inkscape:pageshadow="2"
     inkscape:window-width="459"
     inkscape:window-height="369"
     id="namedview9"
     showgrid="false"
     inkscape:zoom="14.75"
     inkscape:cx="8"
     inkscape:cy="8"
     inkscape:window-x="65"
     inkscape:window-y="24"
     inkscape:window-maximized="0"
     inkscape:current-layer="svg2" />
  <path
     style="fill:#ececec;fill-opacity:1"
     d="M 1.5996094 0 C 0.71320937 2.9605947e-16 0 0.71320937 0 1.5996094 L 0 14.400391 C 2.9605947e-16 15.286791 0.71320937 16 1.5996094 16 L 14.400391 16 C 15.286791 16 16 15.286791 16 14.400391 L 16 1.5996094 C 16 0.71320937 15.286791 0 14.400391 0 L 1.5996094 0 z M 3.5996094 4.828125 C 3.9356094 4.828125 4.2527344 4.8542031 4.5527344 4.9082031 C 4.8587344 4.9622031 5.1274688 5.0517344 5.3554688 5.1777344 C 5.5834687 5.3037344 5.7625312 5.4716406 5.8945312 5.6816406 C 6.0325312 5.8856406 6.1015625 6.1412656 6.1015625 6.4472656 C 6.1015625 6.7832656 6.0138438 7.0705469 5.8398438 7.3105469 C 5.6718437 7.5445469 5.44425 7.706875 5.15625 7.796875 C 5.33625 7.838875 5.5023438 7.8985625 5.6523438 7.9765625 C 5.8023438 8.0545625 5.932875 8.1572031 6.046875 8.2832031 C 6.160875 8.4032031 6.2485937 8.554375 6.3085938 8.734375 C 6.3745937 8.908375 6.4082031 9.1172812 6.4082031 9.3632812 C 6.4082031 9.9512814 6.1730781 10.400891 5.7050781 10.712891 C 5.2370781 11.018891 4.5151094 11.171875 3.5371094 11.171875 C 3.4351094 11.171875 3.3137812 11.166297 3.1757812 11.154297 C 3.0437813 11.148297 2.9057187 11.137141 2.7617188 11.119141 C 2.6237187 11.107141 2.4931875 11.092219 2.3671875 11.074219 C 2.2411875 11.050219 2.1329687 11.025953 2.0429688 11.001953 L 2.0429688 4.9980469 C 2.1509688 4.9680469 2.2703437 4.9437813 2.4023438 4.9257812 C 2.5343437 4.9017813 2.6705938 4.8850469 2.8085938 4.8730469 C 2.9525938 4.8550469 3.0887031 4.8419375 3.2207031 4.8359375 C 3.3587031 4.8299375 3.4856094 4.828125 3.5996094 4.828125 z M 3.5996094 5.3496094 C 3.3776094 5.3496094 3.1892031 5.3551875 3.0332031 5.3671875 C 2.8832031 5.3791875 2.7562969 5.3941094 2.6542969 5.4121094 L 2.6542969 7.609375 L 3.8417969 7.609375 C 4.0637969 7.609375 4.2746563 7.5944531 4.4726562 7.5644531 C 4.6706562 7.5284531 4.8423281 7.4668125 4.9863281 7.3828125 C 5.1363281 7.2928125 5.2519375 7.1772031 5.3359375 7.0332031 C 5.4199375 6.8832031 5.4628906 6.6928438 5.4628906 6.4648438 C 5.4628906 6.2608438 5.418125 6.091125 5.328125 5.953125 C 5.238125 5.809125 5.1094063 5.6915625 4.9414062 5.6015625 C 4.7794063 5.5115625 4.5834687 5.4481094 4.3554688 5.4121094 C 4.1274688 5.3701094 3.8756094 5.3496094 3.5996094 5.3496094 z M 9.4492188 6.375 C 10.037219 6.375 10.462562 6.5466719 10.726562 6.8886719 C 10.756562 6.8646719 10.812484 6.8254844 10.896484 6.7714844 C 10.986484 6.7114844 11.098469 6.6517969 11.230469 6.5917969 C 11.362469 6.5317969 11.515453 6.4814531 11.689453 6.4394531 C 11.869453 6.3974531 12.067203 6.375 12.283203 6.375 C 12.637203 6.375 12.922672 6.4291094 13.138672 6.5371094 C 13.360672 6.6391094 13.530391 6.7865156 13.650391 6.9785156 C 13.770391 7.1645156 13.852531 7.3902969 13.894531 7.6542969 C 13.936531 7.9182969 13.957031 8.2055781 13.957031 8.5175781 L 13.957031 11.119141 L 13.373047 11.119141 L 13.373047 8.7070312 C 13.373047 8.4010313 13.358125 8.1360625 13.328125 7.9140625 C 13.304125 7.6860625 13.250016 7.5014219 13.166016 7.3574219 C 13.088016 7.2074219 12.974219 7.0954375 12.824219 7.0234375 C 12.674219 6.9454375 12.478281 6.90625 12.238281 6.90625 C 12.058281 6.90625 11.894141 6.9249375 11.744141 6.9609375 C 11.600141 6.9909375 11.473234 7.030125 11.365234 7.078125 C 11.257234 7.126125 11.167703 7.1727031 11.095703 7.2207031 C 11.029703 7.2687031 10.981172 7.3060781 10.951172 7.3300781 C 11.005172 7.4860781 11.044359 7.6633281 11.068359 7.8613281 C 11.098359 8.0533281 11.113281 8.2566562 11.113281 8.4726562 L 11.113281 11.119141 L 10.529297 11.119141 L 10.529297 8.7070312 C 10.529297 8.4010313 10.512422 8.1360625 10.482422 7.9140625 C 10.458422 7.6860625 10.406266 7.5014219 10.322266 7.3574219 C 10.238266 7.2074219 10.116938 7.0954375 9.9609375 7.0234375 C 9.8109375 6.9454375 9.6094219 6.90625 9.3574219 6.90625 C 9.0754219 6.90625 8.8366719 6.9211719 8.6386719 6.9511719 C 8.4466719 6.9811719 8.3235312 7.0092031 8.2695312 7.0332031 L 8.2695312 11.119141 L 7.6835938 11.119141 L 7.6835938 6.6269531 C 7.8575938 6.5789531 8.083375 6.5248438 8.359375 6.4648438 C 8.641375 6.4048438 9.0052188 6.375 9.4492188 6.375 z M 2.6542969 8.1308594 L 2.6542969 10.587891 C 2.7442969 10.599891 2.8805469 10.614812 3.0605469 10.632812 C 3.2405469 10.644813 3.423375 10.650391 3.609375 10.650391 C 3.885375 10.650391 4.1521562 10.631703 4.4101562 10.595703 C 4.6741563 10.559703 4.9055156 10.494438 5.1035156 10.398438 C 5.3015156 10.302437 5.4600781 10.169953 5.5800781 10.001953 C 5.7000781 9.833953 5.7597656 9.6194688 5.7597656 9.3554688 C 5.7597656 9.1154687 5.7168125 8.9157656 5.6328125 8.7597656 C 5.5488125 8.5977656 5.4294375 8.4728125 5.2734375 8.3828125 C 5.1174375 8.2868125 4.9252656 8.2195938 4.6972656 8.1835938 C 4.4752656 8.1475937 4.2271719 8.1308594 3.9511719 8.1308594 L 2.6542969 8.1308594 z "
     id="path4" />
</svg>

<svg xmlns="http://www.w3.org/2000/svg" viewBox="0 0 16 16">
 <path d="m 1.6 0 c -0.886 0 -1.6 0.713 -1.6 1.6 l 0 12.801 c 0 0.886 0.713 1.6 1.6 1.6 l 12.801 0 c 0.886 0 1.6 -0.713 1.6 -1.6 l 0 -12.801 c 0 -0.886 -0.713 -1.6 -1.6 -1.6 l -12.801 0 z m 2 4.828 c 0.336 0 0.653 0.026 0.953 0.08 c 0.306 0.054 0.575 0.144 0.803 0.27 c 0.228 0.126 0.407 0.294 0.539 0.504 c 0.138 0.204 0.207 0.46 0.207 0.766 c 0 0.336 -0.088 0.623 -0.262 0.863 c -0.168 0.234 -0.396 0.396 -0.684 0.486 c 0.18 0.042 0.346 0.102 0.496 0.18 c 0.15 0.078 0.281 0.181 0.395 0.307 c 0.114 0.12 0.202 0.271 0.262 0.451 c 0.066 0.174 0.1 0.383 0.1 0.629 c 0 0.588 -0.235 1.038 -0.703 1.35 c -0.468 0.306 -1.19 0.459 -2.168 0.459 c -0.102 0 -0.223 -0.006 -0.361 -0.018 c -0.132 -0.006 -0.27 -0.017 -0.414 -0.035 c -0.138 -0.012 -0.269 -0.027 -0.395 -0.045 c -0.126 -0.024 -0.234 -0.048 -0.324 -0.072 l 0 -6 c 0.108 -0.03 0.227 -0.054 0.359 -0.072 c 0.132 -0.024 0.268 -0.041 0.406 -0.053 c 0.144 -0.018 0.28 -0.031 0.412 -0.037 c 0.138 -0.006 0.265 -0.008 0.379 -0.008 z m 0 0.521 c -0.222 0 -0.41 0.006 -0.566 0.018 c -0.15 0.012 -0.277 0.027 -0.379 0.045 l 0 2.197 l 1.188 0 c 0.222 0 0.433 -0.015 0.631 -0.045 c 0.198 -0.036 0.37 -0.098 0.514 -0.182 c 0.15 -0.09 0.266 -0.206 0.35 -0.35 c 0.084 -0.15 0.127 -0.34 0.127 -0.568 c 0 -0.204 -0.045 -0.374 -0.135 -0.512 c -0.09 -0.144 -0.219 -0.262 -0.387 -0.352 c -0.162 -0.09 -0.358 -0.153 -0.586 -0.189 c -0.228 -0.042 -0.48 -0.063 -0.756 -0.063 z m 5.85 1.025 c 0.588 0 1.013 0.172 1.277 0.514 c 0.03 -0.024 0.086 -0.063 0.17 -0.117 c 0.09 -0.06 0.202 -0.12 0.334 -0.18 c 0.132 -0.06 0.285 -0.11 0.459 -0.152 c 0.18 -0.042 0.378 -0.064 0.594 -0.064 c 0.354 0 0.639 0.054 0.855 0.162 c 0.222 0.102 0.392 0.249 0.512 0.441 c 0.12 0.186 0.202 0.412 0.244 0.676 c 0.042 0.264 0.063 0.551 0.063 0.863 l 0 2.602 l -0.584 0 l 0 -2.412 c 0 -0.306 -0.015 -0.571 -0.045 -0.793 c -0.024 -0.228 -0.078 -0.413 -0.162 -0.557 c -0.078 -0.15 -0.192 -0.262 -0.342 -0.334 c -0.15 -0.078 -0.346 -0.117 -0.586 -0.117 c -0.18 0 -0.344 0.019 -0.494 0.055 c -0.144 0.03 -0.271 0.069 -0.379 0.117 c -0.108 0.048 -0.198 0.095 -0.27 0.143 c -0.066 0.048 -0.115 0.085 -0.145 0.109 c 0.054 0.156 0.093 0.333 0.117 0.531 c 0.03 0.192 0.045 0.395 0.045 0.611 l 0 2.646 l -0.584 0 l 0 -2.412 c 0 -0.306 -0.017 -0.571 -0.047 -0.793 c -0.024 -0.228 -0.076 -0.413 -0.16 -0.557 c -0.084 -0.15 -0.205 -0.262 -0.361 -0.334 c -0.15 -0.078 -0.352 -0.117 -0.604 -0.117 c -0.282 0 -0.521 0.015 -0.719 0.045 c -0.192 0.03 -0.315 0.058 -0.369 0.082 l 0 4.086 l -0.586 0 l 0 -4.492 c 0.174 -0.048 0.4 -0.102 0.676 -0.162 c 0.282 -0.06 0.646 -0.09 1.09 -0.09 z m -6.795 1.756 l 0 2.457 c 0.09 0.012 0.226 0.027 0.406 0.045 c 0.18 0.012 0.363 0.018 0.549 0.018 c 0.276 0 0.543 -0.019 0.801 -0.055 c 0.264 -0.036 0.495 -0.101 0.693 -0.197 c 0.198 -0.096 0.357 -0.228 0.477 -0.396 c 0.12 -0.168 0.18 -0.382 0.18 -0.646 c 0 -0.24 -0.043 -0.44 -0.127 -0.596 c -0.084 -0.162 -0.203 -0.287 -0.359 -0.377 c -0.156 -0.096 -0.348 -0.163 -0.576 -0.199 c -0.222 -0.036 -0.47 -0.053 -0.746 -0.053 l -1.297 0 z" style="fill:#ececec;fill-opacity:1"/>
</svg>
